X: 455
T: Bulguru Kaynatırlar
C: (Anonim)
O: Turkey
F: http://compmusic.upf.edu/node/140
N: ferahnuma--turku--sofyan--fidayda--ankara
N: makam= ferahnuma
N: form= turku
N: usul= sofyan = 4/4
M: 4/4
L: 1/16
K: C _B _e  
Q: 1/4=72
%%MIDI tuningsystem comma53
G3A _2/4Bcd2 {e}c4 _BAG2  | A/_2/4B/A/G/AB c2d2 cd2c _BAGA  | 
w:  ARANAĞME  |   | 
F4 EDED F4 EDED  | D6D2 z2D2 z2D2  | \
w:   |   | 
G3A _2/4Bcd2 c4 _BAG2  | 
w:   | 
A/_2/4B/A/G/AB c2d2 d/c/d2c _BAGA  | \
w:   | 
F4 EDED F4 E3/2D/E3/2D/  | 
w:   | 
D6D2 z2D2 z2D2  | z2GF GFG2 z2F2 z2E2  | \
w:   |   | 
z2GF GFG2 z2F2 z2E2  | 
w:   | 
z2GF GFG2 z2F2 z2E2  | z2F2 z2E2 z2D2 z2D2  | \
w:   |   | 
z2E2 z2F2 z2E2 z2E2  | 
w:   | 
z2F2 z2E2 z2D2 z2D2  | z2E2 z2F2 z2E2 z2E2  | \
w:   |   | 
z2F2 z2E2 z2D2 z2D2  | 
w:   | 
G3A _2/4Bcd2 .d4 .d2.d2  | ccd2 d2d2 d4 {^f}g4  | \
w:   |  A man  *  bul gu ru  *  kay  | 
g^f3 e2{f}ed d4 G/A3/2c/d3/2  | 
w:  na *  tır *  *  *  lar   SAZ  | 
ccd2 d2d2 d4 {^f}g4  | g^f3 e2{f}ed d4 GA_2/4Bc  | \
w:  Hay *  di  bul gu ru  *  kay  |  na *  tır *  *  *  lar   SAZ  | 
d2D2 c2{d}cd d2d4A2  | 
w:  *  *  Se *  ri *  ne  yay  | 
A2B2 c2d2 c3/2e/dc BAGF  | AB2A .A2AG G2GG F2E2  | 
w:  la tır *  *  lar    |  A man  *  se ri *  ne  yay  | 
.F2GF E2ED D4 G,/A,/B,/C/D/E/F/G/  | \
w:  la tır *  *  *  *  lar   SAZ  | 
FGAG A2G2 z2F2 z2E2  | 
w:   | 
FGAG A2G2 z2F2 z2E2  | FGAG A2G2 z2F2 z2E2  | \
w:   |   | 
z2B2 {c}A2G2 z2B2 {c}A2G2  | 
w:   | 
z2B2 {c}A2G2 z2F2 z2E2  | z2F2 z2E2 z2D2 z2.D2  | \
w:   |   | 
z2B2 {c}A2G2 z2F2 z2E2  | 
w:   | 
z2F2 z2E2 z2D2 z2.D2  | G3A _2/4Bcd2 d4 d2dc/B/  | \
w:   |   | 
A/G/^F/E/D2 c2d2 d4 {^f}g4  | 
w:  *  *  *  *  *  Biz de  â *  det   | 
g^f3 e2{f}ed d4 ^F/G/B/d/g2  | gg3 .g2.g2 g2g^f e2e2  | \
w:  böy *  le *  *  *  dir   SAZ  |  A man  biz de  â det   | 
^f2gf e2{f}ed d4 GABc  | 
w:  böy *  *  le *  *  *  dir   SAZ  | 
d2z2 c2{d}cd d2d4A2  | A2B2 c2d2 c3/2e/dc BAGF  | \
w:  *  Gü *  ze *  li  ağ  |  la tır *  *  lar    | 
AB2A .A2{B}AG G2GG F2E2  | 
w:  A man  *  çir *  ki *  ni  söy  | 
.F2GF E2ED D4 D/F/A/B/z2  | AA2B .A2G2 GF2G F2ED  | 
w:  le tir *  *  *  *  ler   SAZ  |  Fi day *  da  da  An *  ka ra lım   | 
F2GF E2ED D2D/E/D/E/ F/G/F/G/A2  | \
w:  Fi day *  *  *  *  da   SAZ  | 
A3A A2G2 GGFG F2ED  | 
w:  Beş yüz_ al tın  ye dir *  *  dim   | 
F2GF E2ED D2C/D/E/F/ D/E/F/G/E/F/G/A/  | \
w:  bir_ ay *  *  *  *  da   SAZ  | 
A2B2 A2G2 GF2G F2E2  | 
w:  Git *  ti  de  gel *  *  me di   | 
F2GF E2ED D2E2 F2G2  | A2A2 {B}A2G2 G2FG F2E2  | \
w:  ne  fay *  *  *  *  da    |  Ba şı *  nı  da  ye sin   | 
F2GF E2ED D6z2  | 
w:  bu  sev *  *  *  *  da    | 
z2A2 z2A2 z2A2 z2A2  | z2A2 z2A2 z2A2 z2A2  | \
w:  SAZ  |   | 
z2A2 z2A2 A2Bc A2G2  | 
w:   | 
GFG2 A2G2 A2Bc A2G2  | GFG2 A2G2 A2Bc A2G2  | \
w:   |   | 
A2_2/4B2 c2d2 c2_3/4Bc A2G2  | 
w:   | 
A2_2/4B2 c2d2 c2_3/4Bc A2G2  | G3/2F/G2 A2G2 G3/2F/G2 F2E2  | \
w:   |   | 
G3/2F/G2 A2G2 G3/2F/G2 F2E2  | 
w:   | 
F4 EDE2 D6D2  | z2GF GFG2 z2F2 z2E2  | \
w:   |   | 
z2GF GFG2 z2F2 z2E2  | 
w:   | 
z2GF GFG2 z2F2 z2E2  | z2F2 z2E2 z2D2 z2D2  | \
w:   |   | 
z2E2 z2F2 z2E2 z2E2  | 
w:   | 
z2F2 z2E2 z2D2 z2D2  | z2E2 z2F2 z2E2 z2E2  | \
w:   |   | 
z2F2 z2E2 z2D2 z2D2  | 
w:   | 
G3A _2/4Bcd2 .d4 .d2.d2  | ccd2 d2d2 d4 {^f}g4  | \
w:   |  A man  *  bul gu ru  *  kay  | 
g^f3 e2{f}ed d4 G/A3/2c/d3/2  | 
w:  na *  tır *  *  *  lar   SAZ  | 
ccd2 d2d2 d4 {^f}g4  | g^f3 e2{f}ed d4 GA_2/4Bc  | \
w:  Hay *  di  bul gu ru  *  kay  |  na *  tır *  *  *  lar   SAZ  | 
d2D2 c2{d}cd d2d4A2  | 
w:  *  *  Se *  ri *  ne  yay  | 
A2B2 c2d2 c3/2e/dc BAGF  | AB2A .A2AG G2GG F2E2  | 
w:  la tır *  *  lar    |  A man  *  se ri *  ne  yay  | 
.F2GF E2ED D4 G,/A,/B,/C/D/E/F/G/  | \
w:  la tır *  *  *  *  lar   SAZ  | 
FGAG A2G2 z2F2 z2E2  | 
w:   | 
FGAG A2G2 z2F2 z2E2  | FGAG A2G2 z2F2 z2E2  | \
w:   |   | 
z2B2 {c}A2G2 z2B2 {c}A2G2  | 
w:   | 
z2B2 {c}A2G2 z2F2 z2E2  | z2F2 z2E2 z2D2 z2.D2  | \
w:   |   | 
z2B2 {c}A2G2 z2F2 z2E2  | 
w:   | 
z2F2 z2E2 z2D2 z2.D2  | G3A _2/4Bcd2 d4 d2dc/B/  | \
w:   |   | 
A/G/^F/E/D2 c2d2 d4 {^f}g4  | 
w:  *  *  *  *  *  Biz de  â *  det   | 
g^f3 e2{f}ed d4 ^F/G/B/d/g2  | gg3 .g2.g2 g2g^f e2e2  | \
w:  böy *  le *  *  *  dir   SAZ  |  A man  biz de  â det   | 
^f2gf e2{f}ed d4 GABc  | 
w:  böy *  *  le *  *  *  dir   SAZ  | 
d2z2 c2{d}cd d2d4A2  | A2B2 c2d2 c3/2e/dc BAGF  | \
w:  *  Gü *  ze *  li  ağ  |  la tır *  *  lar    | 
AB2A .A2{B}AG G2GG F2E2  | 
w:  A man  *  çir *  ki *  ni  söy  | 
.F2GF E2ED D4 D/F/A/B/z2  | AA2B .A2G2 GF2G F2ED  | 
w:  le tir *  *  *  *  ler   SAZ  |  Fi day *  da  da  An *  ka ra lım   | 
F2GF E2ED D2D/E/D/E/ F/G/F/G/A2  | \
w:  Fi day *  *  *  *  da   SAZ  | 
A3A A2G2 GGFG F2ED  | 
w:  Beş yüz_ al tın  ye dir *  *  dim   | 
F2GF E2ED D2C/D/E/F/ D/E/F/G/E/F/G/A/  | \
w:  bir_ ay *  *  *  *  da   SAZ  | 
A2B2 A2G2 GF2G F2E2  | 
w:  Git *  ti  de  gel *  *  me di   | 
F2GF E2ED D2E2 F2G2  | A2A2 {B}A2G2 G2FG F2E2  | \
w:  ne  fay *  *  *  *  da    |  Ba şı *  nı  da  ye sin   | 
F2GF E2ED D6z2  | 
w:  bu  sev *  *  *  *  da    | 
z2A2 z2A2 z2A2 z2A2  | z2A2 z2A2 z2A2 z2A2  | \
w:  SAZ  |   | 
z2A2 z2A2 A2Bc A2G2  | 
w:   | 
GFG2 A2G2 A2Bc A2G2  | GFG2 A2G2 A2Bc A2G2  | \
w:   |   | 
A2_2/4B2 c2d2 c2_3/4Bc A2G2  | 
w:   | 
A2_2/4B2 c2d2 c2_3/4Bc A2G2  | G3/2F/G2 A2G2 G3/2F/G2 F2E2  | \
w:   |   | 
G3/2F/G2 A2G2 G3/2F/G2 F2E2  | 
w:   | 
F4 EDE2 D6D2  | |


